img/hero/sport.svg

<svg width="57" height="57" viewBox="0 0 57 57" fill="none" xmlns="http://www.w3.org/2000/svg">
<path d="M15.7591 9.63778L15.7441 10.7264C16.6926 10.7395 17.4642 11.5221 17.4642 12.4709H18.5529C18.553 10.9299 17.2996 9.65897 15.7591 9.63778Z" fill="white"/>
<path d="M13.7297 10.4533L14.4942 11.2286C14.6918 11.0336 14.9353 10.8872 15.1983 10.8051L14.8739 9.76592C14.446 9.89954 14.0504 10.1372 13.7297 10.4533Z" fill="white"/>
<path d="M12.8855 12.4709H13.9742C13.9742 12.1892 14.0391 11.9206 14.1671 11.6725L13.1996 11.1734C12.9941 11.5716 12.8855 12.0203 12.8855 12.4709Z" fill="white"/>
<path d="M17.8868 19.9486L21.7767 23.8385L18.3598 27.2555L22.5101 31.4058L23.2799 30.636L19.8994 27.2556L27.0869 20.0682L27.3914 20.3727H33.9987V19.284H27.8423L24.1619 15.6036H29.3057V17.5254H28.9258V16.5107H27.8371V18.6141H30.3944V17.0784L33.854 14.4071H40.8125V13.3184H33.8541L30.3944 10.647V8.93597H27.8371V11.0393H28.9258V10.0247H29.3057V11.9466H20.7171L19.9593 12.6999C20.0215 11.5369 19.6098 10.3531 18.7235 9.46668C17.0669 7.8101 14.3715 7.8101 12.7149 9.46668C11.0583 11.1233 11.0583 13.8187 12.7149 15.4753C13.5432 16.3036 14.6312 16.7177 15.7192 16.7177C15.7956 16.7177 15.8719 16.7152 15.9481 16.7111L13.4177 19.246H9.44263V22.9031H14.9324L17.8868 19.9486ZM30.3949 12.0228L32.7777 13.8626L30.3944 15.7028L30.3949 12.0228ZM22.5465 23.0688L16.8405 17.3627L18.3408 15.8624L19.1691 16.6907L18.5065 17.3533L20.229 19.0757L20.8915 18.4132L21.6111 19.1328L20.9486 19.7953L22.671 21.5177L23.3335 20.8552L24.0468 21.5685L22.5465 23.0688ZM20.0461 17.3533L20.5992 16.8002L20.782 16.983L20.229 17.5361L20.0461 17.3533ZM22.4882 19.7953L23.0413 19.2423L23.2241 19.4251L22.671 19.9782L22.4882 19.7953ZM29.3057 13.0353V14.5149H23.0732L21.5936 13.0353H29.3057ZM20.611 13.5923L26.3171 19.2983L24.8167 20.7987L24.1034 20.0854L24.7638 19.4251L23.0413 17.7027L22.381 18.363L21.6613 17.6434L22.3217 16.983L20.5993 15.2606L19.939 15.9209L19.1107 15.0926L20.611 13.5923ZM15.7191 15.631C14.8751 15.631 14.0815 15.3023 13.4847 14.7054C12.2526 13.4733 12.2526 11.4686 13.4847 10.2365C14.1007 9.62041 14.9099 9.31245 15.7191 9.31245C16.5283 9.31245 17.3376 9.62048 17.9536 10.2365C19.1857 11.4686 19.1857 13.4733 17.9536 14.7054C17.3568 15.3023 16.5632 15.631 15.7191 15.631ZM10.5313 21.8142V20.3346H13.8685L16.0707 18.1325L17.1169 19.1787L14.4814 21.8142H10.5313Z" fill="white"/>
<path d="M27.9003 22.9411H30.8443V21.8523H27.4549L23.9777 25.2697L21.9919 27.2555L24.3263 29.5898L25.0962 28.82L23.5316 27.2555L24.7442 26.043L27.9003 22.9411Z" fill="white"/>
<path d="M39.5309 17.9974L38.4527 17.0261L21.4719 34.0039L22.2745 34.8348L24.1942 34.8635L39.5021 19.929L39.5309 17.9974ZM38.4202 19.4636L23.7579 33.7682L23.2551 33.7607L38.4333 18.5851L38.4202 19.4636Z" fill="white"/>
<path d="M46.0597 37.7195C44.3616 37.7195 43.5331 37.3861 42.6558 37.033C41.721 36.6568 40.7544 36.2679 38.8453 36.2679C36.9363 36.2679 35.9697 36.6568 35.035 37.033C34.1578 37.3861 33.3293 37.7195 31.6311 37.7195C29.9329 37.7195 29.1043 37.3861 28.227 37.033C27.2923 36.6568 26.3256 36.2679 24.4165 36.2679C22.5074 36.2679 21.5407 36.6568 20.6059 37.033C19.7287 37.3861 18.9001 37.7195 17.2018 37.7195C15.5034 37.7195 14.6748 37.3861 13.7976 37.033C12.8627 36.6568 11.8961 36.2679 9.98698 36.2679H9.44263V45.3837H46.6041V37.7195H46.0597ZM45.5155 44.2949H45.5154H10.5313V37.3689C11.8733 37.4323 12.6132 37.73 13.3912 38.0431C14.326 38.4193 15.2927 38.8082 17.2018 38.8082C19.1109 38.8082 20.0776 38.4193 21.0124 38.0431C21.8897 37.69 22.7183 37.3566 24.4166 37.3566C26.1148 37.3566 26.9434 37.69 27.8206 38.0431C28.7554 38.4193 29.722 38.8082 31.6311 38.8082C33.5401 38.8082 34.5067 38.4193 35.4415 38.0431C36.3187 37.69 37.1473 37.3566 38.8454 37.3566C40.5436 37.3566 41.3722 37.69 42.2494 38.0431C43.0909 38.3817 43.9581 38.7307 45.5155 38.797V44.2949Z" fill="white"/>
<path d="M39.6646 39.5552C40.8362 39.6437 41.5227 39.9199 42.2495 40.2125C42.7519 40.4147 43.2715 40.6238 43.9505 40.7725L44.1834 39.709C43.5934 39.5798 43.1381 39.3965 42.6559 39.2025C41.8842 38.892 41.0863 38.5708 39.7466 38.4696L39.6646 39.5552Z" fill="white"/>
<path d="M11.8264 39.5499C12.145 39.6178 12.4532 39.7076 12.7965 39.8328L13.1694 38.8099C12.7773 38.667 12.4227 38.5638 12.0533 38.485L11.8264 39.5499Z" fill="white"/>
<path d="M20.6058 39.0545C19.7285 39.4075 18.8999 39.7409 17.2016 39.7409H17.201C16.5573 39.7409 15.9965 39.693 15.4869 39.5943L15.28 40.6632C15.8586 40.7752 16.487 40.8297 17.201 40.8297H17.2017C19.1108 40.8297 20.0775 40.4407 21.0123 40.0645C21.3587 39.9251 21.686 39.7934 22.0623 39.6813L21.7516 38.6379C21.3265 38.7645 20.9601 38.9119 20.6058 39.0545Z" fill="white"/>
<path d="M13.4548 40.0903C13.7984 40.2284 14.1388 40.3619 14.5234 40.4772L14.836 39.4344C14.4947 39.332 14.1925 39.2134 13.8609 39.0802L13.4548 40.0903Z" fill="white"/>
<path d="M46.6038 13.3184H41.9009V14.4071H46.6038V13.3184Z" fill="white"/>
<path d="M18.5413 28.9908H15.5393V30.0796H18.5413V28.9908Z" fill="white"/>
<path d="M12.9989 28.9908H11.9102V30.0796H12.9989V28.9908Z" fill="white"/>
<path d="M14.8133 28.9908H13.7246V30.0796H14.8133V28.9908Z" fill="white"/>
<path d="M14.9181 25.4655H10.5632V26.5542H14.9181V25.4655Z" fill="white"/>
<path d="M17.2817 25.4655H16.0068V26.5542H17.2817V25.4655Z" fill="white"/>
<path d="M43.8098 33.8617H42.7393V34.9504H43.8098V33.8617Z" fill="white"/>
<path d="M42.0135 33.8617H40.9248V34.9504H42.0135V33.8617Z" fill="white"/>
<path d="M40.1988 33.8617H39.1101V34.9504H40.1988V33.8617Z" fill="white"/>
<path d="M42.2208 28.3615H41.1321V29.4502H42.2208V28.3615Z" fill="white"/>
<path d="M36.7772 28.3615H35.6885V29.4502H36.7772V28.3615Z" fill="white"/>
<path d="M40.4063 28.3615H39.3176V29.4502H40.4063V28.3615Z" fill="white"/>
<path d="M38.5916 28.3615H37.5029V29.4502H38.5916V28.3615Z" fill="white"/>
<circle cx="28.1757" cy="28.1757" r="27.6757" stroke="white"/>
</svg>

<svg width="57" height="57" viewBox="0 0 57 57" fill="none" xmlns="http://www.w3.org/2000/svg"><path d="M15.76 9.638l-.016 1.088c.949.013 1.72.796 1.72 1.745h1.089a2.844 2.844 0 00-2.794-2.833zm-2.03.815l.764.776a1.75 1.75 0 01.704-.424l-.324-1.04a2.846 2.846 0 00-1.144.688zm-.844 2.017h1.088c0-.28.065-.55.193-.798l-.967-.499a2.841 2.841 0 00-.314 1.298z" fill="#fff"/><path d="M17.887 19.949l3.89 3.89-3.417 3.417 4.15 4.15.77-.77-3.38-3.38 7.187-7.188.304.305H34v-1.089h-6.157l-3.68-3.68h5.144v1.921h-.38v-1.014h-1.089v2.103h2.557v-1.536l3.46-2.67h6.959v-1.09h-6.959l-3.46-2.671V8.936h-2.557v2.103h1.089v-1.014h.38v1.922h-8.589l-.758.753a4.24 4.24 0 00-1.235-3.233 4.254 4.254 0 00-6.01 0 4.254 4.254 0 000 6.008 4.235 4.235 0 003.234 1.236l-2.53 2.535H9.443v3.657h5.49l2.954-2.954zm12.508-7.926l2.383 1.84-2.384 1.84v-3.68zm-7.848 11.046l-5.707-5.706 1.5-1.5.83.828-.664.662 1.723 1.723.663-.663.72.72-.663.662 1.722 1.723.663-.663.713.713-1.5 1.5zm-2.5-5.716l.552-.553.183.183-.553.553-.183-.183zm2.441 2.442l.553-.553.183.183-.553.553-.183-.183zm6.818-6.76v1.48h-6.233l-1.48-1.48h7.713zm-8.695.557l5.706 5.706-1.5 1.5-.714-.713.66-.66-1.722-1.722-.66.66-.72-.72.66-.66-1.722-1.722-.66.66-.828-.828 1.5-1.5zm-4.892 2.039a3.139 3.139 0 01-2.234-.926 3.164 3.164 0 010-4.469 3.15 3.15 0 012.234-.924c.81 0 1.619.308 2.235.925a3.164 3.164 0 010 4.468 3.14 3.14 0 01-2.235.926zm-5.188 6.183v-1.48h3.337l2.203-2.201 1.046 1.046-2.636 2.635h-3.95z" fill="#fff"/><path d="M27.9 22.941h2.944v-1.089h-3.39l-3.476 3.418-1.986 1.986 2.334 2.334.77-.77-1.564-1.564 1.212-1.213 3.156-3.102zm11.63-4.944l-1.077-.97-16.981 16.977.802.83 1.92.03 15.308-14.935.029-1.932zm-1.11 1.467L23.758 33.768l-.503-.007 15.178-15.176-.013.879zm7.64 18.256c-1.698 0-2.527-.334-3.404-.687-.935-.376-1.902-.765-3.81-.765-1.91 0-2.876.389-3.811.765-.877.353-1.706.686-3.404.686s-2.527-.333-3.404-.686c-.935-.376-1.901-.765-3.81-.765-1.91 0-2.876.389-3.811.765-.877.353-1.706.686-3.404.686-1.699 0-2.527-.333-3.404-.686-.935-.376-1.902-.765-3.811-.765h-.544v9.116h37.161v-7.665h-.544zm-.544 6.575H10.53v-6.926c1.342.063 2.082.361 2.86.674.935.376 1.902.765 3.81.765 1.91 0 2.877-.389 3.811-.765.878-.353 1.706-.686 3.405-.686 1.698 0 2.526.333 3.404.686.934.376 1.901.765 3.81.765 1.91 0 2.876-.389 3.81-.765.878-.353 1.706-.686 3.404-.686 1.699 0 2.527.333 3.404.686.842.339 1.71.688 3.267.754v5.498z" fill="#fff"/><path d="M39.665 39.555c1.171.089 1.858.365 2.584.657.503.203 1.023.412 1.701.56l.233-1.063c-.59-.13-1.045-.313-1.527-.507-.772-.31-1.57-.631-2.91-.732l-.081 1.085zm-27.839-.005c.319.068.627.158.97.283l.373-1.023a8.165 8.165 0 00-1.116-.325l-.227 1.065zm8.78-.496c-.878.353-1.706.687-3.404.687H17.2a8.981 8.981 0 01-1.714-.147l-.207 1.07a10.14 10.14 0 001.921.166c1.91 0 2.877-.39 3.811-.765.347-.14.674-.272 1.05-.384l-.31-1.043a12.62 12.62 0 00-1.146.416zm-7.151 1.036c.343.138.684.272 1.068.387l.313-1.043a11.127 11.127 0 01-.975-.354l-.406 1.01zm33.149-26.772H41.9v1.09h4.703v-1.09zM18.541 28.99H15.54v1.09h3.002v-1.09zm-5.542 0H11.91v1.09H13v-1.09zm1.814 0h-1.088v1.09h1.088v-1.09zm.105-3.525h-4.355v1.09h4.355v-1.09zm2.364 0h-1.275v1.09h1.275v-1.09zm26.528 8.397h-1.07v1.088h1.07v-1.088zm-1.796 0h-1.09v1.088h1.09v-1.088zm-1.815 0H39.11v1.088h1.09v-1.088zm2.021-5.501h-1.088v1.09h1.089v-1.09zm-5.443 0h-1.089v1.09h1.09v-1.09zm3.629 0h-1.088v1.09h1.088v-1.09zm-1.814 0h-1.09v1.09h1.09v-1.09z" fill="#fff"/><circle cx="28.176" cy="28.176" r="27.676" stroke="#fff"/></svg>
